X:1
T:Title
%%score { ( 1 3 ) | ( 2 4 ) }
L:1/8
M:6/4
K:C
V:1 treble nm="Grand Piano"
V:3 treble 
V:2 bass 
V:4 bass 
V:1
 z6 z4[Q:1/4=132] [EG]2 | [EG]2 [_E^F]2 [=EG]2 [=FA]2 [EG]2 [CE]2 | [EG]2 [Ec]2 [Fd]2 [Ec]4 [EG]2 | %3
 A2 ^G2 A2 [Ac]2 [=GB]2 [FA]2 | [FA]2 [EG]2 E2 D4 G2 | [EG]2 [_E^F]2 [=EG]2 [=FA]2 [EG]2 [CE]2 | %6
 [EG]2 c2 c2 B4 [^GB]2 | [Ad]2 [Ac]2 [FA]2 [FA]2 [EG]2 E2 |[M:5/4] G2 A2 B2 [Ec]4 |[M:1/4] [Ec]2 | %10
[M:6/4] [DB]6- [DB]2 [Ec]2 [Fd]2 | [DF]6 z6 | .[EG]12 | [CE]6 z6 | [Ec]6- [Ec]2 B2 c2 | e6 d4 c2 | %16
 .B12 | .B12 | .[EG]12 | [Ge]6 z6 | .[Fd]12 | [FA]12 | .[EG]12 | [CEG]6 [CGc]4 [Ad]2 | .[Ge]12 | %25
[M:5/4] [Ec]2- [Ec]2- [Ec]6 |] %26
V:2
 z6 z4 [C,C]2 | [C,C]2 [C,C]2 [C,C]2 [C,C]2 [C,C]2 [C,G,]2 | %2
 [C,G,]2 [C,G,]2 [C,G,]2 [C,G,]4 [C,C]2 | [F,CF]2 [F,B,F]2 [F,CF]2 [F,C]2 [F,C]2 [F,C]2 | %4
 [C,C]2 [C,C]2 [E,G,C]2 [G,B,]4 [G,B,F]2 | [C,C]2 [C,C]2 [C,C]2 [C,C]2 [C,C]2 [C,G,]2 | %6
 [C,C]2 [A,CE]2 [A,E]2 [E,G,E]4 [E,E]2 | [F,C]2 [F,C]2 [F,C]2 [C,C]2 [C,C]2 [C,G,C]2 | %8
[M:5/4][K:treble] [G,B,D]2 [G,CF]2 [G,DF]2[K:bass] [C,C]4 |[M:1/4] [C,G,]2 | %10
[M:6/4] G,2 G,2 G,2 G,2 G,2 G,2 | G,2 G,2 G,2[K:treble] [G,DF]4 [G,B,F]2 | %12
 [C,C]2 C,2 C,2 C,2 C,2 C,2 | C,2 C,2 C,2 C,4 C,2 | A,2 A,2 A,2 A,2 [A,E]2 [A,E]2 | %15
 [A,CE]6 [^G,B,E]4 [A,E]2 | .E12 | [E,^G,E]6 z2 A2 D,2 | C,2 C,2 C,2 C,2 [C,G,]2 [C,G,]2 | %19
 [C,C]2 C,2 C,2 [C,G,]4 [C,G,]2 | [F,A,]2 F,2 F,2 F,2 F,2 F,2 | F,2 F,2 F,2 F,4 F,2 | %22
 C,2 C,2 C,2 C,2 C,2 C,2 | C,6 E,4 [F,C]2 | [G,C]2 G,2 G,2 G,2 [G,E]2 [G,,G,]2 | %25
[M:5/4] [C,G,]2- [C,G,]2- [C,G,]6 |] %26
V:3
 x12 | x12 | x12 | x12 | x12 | x12 | x12 | x12 |[M:5/4] x10 |[M:1/4] x2 |[M:6/4] x12 | %11
 B,2 B,2 B,2 B4 A2 | z2 C2 C2 C2 [CFA]2 [CEG]2 | G,2 G,2 G,2 [CEG]4 [CEG]2 | x12 | x12 | %16
 z2 ^G,2 G,2 G,2 d2 c2 | z6 F4 [B,FG]2 | C2 C2 C2 C2 [Ec]2 [Fd]2 | z2 C2 C2 [Ec]4 [Ec]2 | %20
 z2 A,2 A,2 A,2 [CAc]2 [CGB]2 | C2 C2 C2 C4 [CFA]2 | C2 C2 C2 C2 [G,CE]2 [G,DF]2 | x12 | %24
 z2 C2 C2 C2 c2 [Fd]2 |[M:5/4] x10 |] %26
V:4
 x12 | x12 | x12 | x12 | x12 | x12 | x12 | x12 |[M:5/4][K:treble] x6[K:bass] x4 |[M:1/4] x2 | %10
[M:6/4] x12 | x6[K:treble] x6 | x12 | x12 | x12 | x12 | [E,^G,]2 E,2 E,2 E,2 [E,B,E]2 [E,A,E]2 | %17
 z6 .[D,=G,]6 | x12 | x12 | x12 | x12 | x12 | x12 | x12 |[M:5/4] x10 |] %26

